; generated by PrusaSlicer 2.5.0+win64 on 2023-02-22 at 13:51:53 UTC


;
;
; 

; external perimeters extrusion width = 0.45mm
; perimeters extrusion width = 0.45mm
; infill extrusion width = 0.45mm
; solid infill extrusion width = 0.45mm
; top infill extrusion width = 0.40mm
; first layer extrusion width = 0.42mm

; external perimeters extrusion width = 0.45mm
; perimeters extrusion width = 0.45mm
; infill extrusion width = 0.45mm
; solid infill extrusion width = 0.45mm
; top infill extrusion width = 0.40mm
; first layer extrusion width = 0.42mm

; external perimeters extrusion width = 0.45mm
; perimeters extrusion width = 0.45mm
; infill extrusion width = 0.45mm
; solid infill extrusion width = 0.45mm
; top infill extrusion width = 0.40mm
; first layer extrusion width = 0.42mm

; external perimeters extrusion width = 0.45mm
; perimeters extrusion width = 0.45mm
; infill extrusion width = 0.45mm
; solid infill extrusion width = 0.45mm
; top infill extrusion width = 0.40mm
; first layer extrusion width = 0.42mm

M73 P0 R204
M73 Q0 S204
M201 X1000 Y1000 Z200 E5000 ; sets maximum accelerations, mm/sec^2
M203 X200 Y200 Z12 E120 ; sets maximum feedrates, mm / sec
M204 P1250 R1250 T1250 ; sets acceleration (P, T) and retract acceleration (R), mm/sec^2
M205 X8.00 Y8.00 Z0.40 E4.50 ; sets the jerk limits, mm/sec
M205 S0 T0 ; sets the minimum extruding and travel feed rate, mm/sec
M107
;TYPE:Custom
M862.3 P "MK3S" ; printer model check
M862.1 P0.4 ; nozzle diameter check
M115 U3.11.0 ; tell printer latest fw version
G90 ; use absolute coordinates
M83 ; extruder relative mode
M104 S215 ; set extruder temp
M140 S60 ; set bed temp
M190 S60 ; wait for bed temp
M109 S215 ; wait for extruder temp
G28 W ; home all without mesh bed level
G80 ; mesh bed leveling

G1 Z0.2 F720
G1 Y-3 F1000 ; go outside print area
G92 E0
G1 X60 E9 F1000 ; intro line
G1 X100 E12.5 F1000 ; intro line

G92 E0
M221 S95

; Don't change E values below. Excessive value can damage the printer.
M907 E430 ; set extruder motor current
G21 ; set units to millimeters
G90 ; use absolute coordinates
M83 ; use relative distances for extrusion
M900 K0.05 ; Filament gcode LA 1.5
M900 K30 ; Filament gcode LA 1.0
M107
;LAYER_CHANGE
;Z:0.2
;HEIGHT:0.2
;BEFORE_LAYER_CHANGE
G92 E0.0
;0.2


G1 E-.8 F2100
G1 Z.4 F720
;AFTER_LAYER_CHANGE
;0.2
G1 X92.639 Y73.583 F10800
G1 Z.2 F720
M73 P0 R203
G1 E.8 F2100
M204 S800
;TYPE:Skirt/Brim
;WIDTH:0.42
G1 F1200
G1 X93.705 Y72.569 E.04612
G1 X95 Y72.246 E.04186
G1 X115 Y72.246 E.62709
G1 X116.417 Y72.639 E.04612
G1 X117.431 Y73.705 E.04612
G1 X117.754 Y75 E.04186
G1 X117.754 Y86.692 E.36658
G1 X117.345 Y88.137 E.0471
G1 X112.223 Y96.445 E.30602
G1 X111.145 Y97.446 E.04612
G1 X109.879 Y97.754 E.04087
G1 X95 Y97.754 E.46651
G1 X93.583 Y97.361 E.04612
G1 X92.569 Y96.295 E.04612
G1 X92.246 Y95 E.04186
G1 X92.246 Y75 E.62709
G1 X92.623 Y73.64 E.04424
M204 S1000
G1 X92.997 Y73.752 F10800
M204 S800
G1 F1200
G1 X93.014 Y73.693 E.00195
G1 X94.06 Y72.817 E.04278
G1 X95 Y72.623 E.03008
G1 X115 Y72.623 E.62709
G1 X116.307 Y73.014 E.04278
G1 X117.183 Y74.06 E.04278
G1 X117.377 Y75 E.03008
G1 X117.377 Y86.692 E.36658
G1 X117.024 Y87.939 E.04065
G1 X111.902 Y96.247 E.30602
G1 X110.883 Y97.155 E.04278
M73 Q0 S203
G1 X109.879 Y97.377 E.03225
G1 X95 Y97.377 E.46651
G1 X93.693 Y96.986 E.04278
G1 X92.817 Y95.94 E.04278
G1 X92.623 Y95 E.03008
G1 X92.623 Y75 E.62709
G1 X92.979 Y73.81 E.03895
M204 S1000
; printing object arce_example.stl id:0 copy 0
;WIPE_START
G1 F8640
G1 X93.014 Y73.693 E-.0282
G1 X94.06 Y72.817 E-.31505
G1 X95 Y72.623 E-.22155
G1 X95.845 Y72.623 E-.1952
;WIPE_END
G1 E-.04 F2100
G1 Z.6 F720
G1 X109.611 Y85.909 F10800
G1 Z.2 F720
G1 E.8 F2100
M204 S800
;TYPE:Perimeter
;WIDTH:0.419999
G1 F1200
G1 X109.559 Y85.913 E.00161
G1 X109.325 Y86.012 E.00796
G1 X109.157 Y86.206 E.00804
G1 X109.091 Y86.47 E.00855
G1 X109.091 Y94.213 E.24277
G1 X95.787 Y94.213 E.41715
G1 X95.787 Y75.787 E.57773
G1 X114.213 Y75.787 E.57773
G1 X114.213 Y85.905 E.31723
G1 X109.67 Y85.905 E.14243
M204 S1000
G1 X109.657 Y86.282 F10800
M204 S800
;TYPE:External perimeter
G1 F1200
G1 X109.529 Y86.332 E.00433
G1 X109.468 Y86.47 E.00472
G1 X109.468 Y94.59 E.25459
G1 X95.41 Y94.59 E.44079
G1 X95.41 Y75.41 E.60137
G1 X114.59 Y75.41 E.60137
G1 X114.59 Y86.282 E.34087
G1 X109.717 Y86.282 E.15279
M204 S1000
G1 X109.531 Y86.226 F10800
;WIPE_START
G1 F8640
G1 X109.529 Y86.332 E-.04506
G1 X109.468 Y86.47 E-.03475
G1 X109.468 Y89.416 E-.68019
;WIPE_END
G1 E-.04 F2100
G1 Z.6 F720
G1 X114.1 Y76.667 F10800
G1 Z.2 F720
G1 E.8 F2100
M204 S800
;TYPE:Solid infill
;WIDTH:0.422206
G1 F1200
G1 X113.503 Y76.07 E.02664
G1 X112.966 Y76.07 E.01692
G1 X113.93 Y77.034 E.04299
G1 X113.93 Y77.57 E.01692
G1 X112.43 Y76.07 E.06692
G1 X111.893 Y76.07 E.01692
G1 X113.93 Y78.107 E.09084
G1 X113.93 Y78.643 E.01692
G1 X111.357 Y76.07 E.11477
G1 X110.821 Y76.07 E.01692
G1 X113.93 Y79.179 E.13869
G1 X113.93 Y79.716 E.01692
G1 X110.284 Y76.07 E.16261
G1 X109.748 Y76.07 E.01692
G1 X113.93 Y80.252 E.18654
G1 X113.93 Y80.789 E.01692
G1 X109.211 Y76.07 E.21046
G1 X108.675 Y76.07 E.01692
G1 X113.93 Y81.325 E.23438
G1 X113.93 Y81.861 E.01692
G1 X108.139 Y76.07 E.25831
G1 X107.602 Y76.07 E.01692
G1 X113.93 Y82.398 E.28223
G1 X113.93 Y82.934 E.01692
G1 X107.066 Y76.07 E.30615
G1 X106.529 Y76.07 E.01692
G1 X113.93 Y83.471 E.33008
G1 X113.93 Y84.007 E.01692
G1 X105.993 Y76.07 E.354
G1 X105.457 Y76.07 E.01692
G1 X113.93 Y84.543 E.37793
G1 X113.93 Y85.08 E.01692
G1 X104.92 Y76.07 E.40185
G1 X104.384 Y76.07 E.01692
G1 X113.93 Y85.616 E.42577
G1 X113.4 Y85.622 E.01672
G1 X103.847 Y76.07 E.42605
G1 X103.311 Y76.07 E.01692
G1 X112.864 Y85.623 E.42606
G1 X112.328 Y85.623 E.0169
G1 X102.775 Y76.07 E.42608
G1 X102.238 Y76.07 E.01692
G1 X111.792 Y85.623 E.4261
G1 X111.256 Y85.624 E.0169
G1 X101.702 Y76.07 E.42611
G1 X101.166 Y76.07 E.01692
G1 X110.72 Y85.624 E.42613
G1 X110.184 Y85.625 E.0169
G1 X100.629 Y76.07 E.42615
G1 X100.093 Y76.07 E.01692
G1 X109.648 Y85.625 E.42616
G1 X109.461 Y85.644 E.00593
G1 X109.228 Y85.741 E.00796
G1 X99.556 Y76.07 E.43135
G1 X99.02 Y76.07 E.01692
G1 X108.95 Y86 E.44289
G1 X108.834 Y86.26 E.00899
G1 X108.816 Y86.403 E.00453
G1 X98.484 Y76.07 E.46085
G1 X97.947 Y76.07 E.01692
G1 X108.809 Y86.931 E.48443
G1 X108.809 Y87.468 E.01692
G1 X97.411 Y76.07 E.50836
G1 X96.874 Y76.07 E.01692
G1 X108.809 Y88.004 E.53228
G1 X108.809 Y88.54 E.01692
G1 X96.338 Y76.07 E.5562
G1 X96.07 Y76.07 E.00846
G1 X96.07 Y76.338 E.00846
G1 X108.809 Y89.077 E.56816
G1 X108.809 Y89.613 E.01692
G1 X96.07 Y76.875 E.56816
G1 X96.07 Y77.411 E.01692
G1 X108.809 Y90.15 E.56816
G1 X108.809 Y90.686 E.01692
G1 X96.07 Y77.947 E.56816
G1 X96.07 Y78.484 E.01692
G1 X108.809 Y91.222 E.56816
G1 X108.809 Y91.759 E.01692
G1 X96.07 Y79.02 E.56816
G1 X96.07 Y79.556 E.01692
G1 X108.809 Y92.295 E.56816
G1 X108.809 Y92.832 E.01692
G1 X96.07 Y80.093 E.56816
G1 X96.07 Y80.629 E.01692
G1 X108.809 Y93.368 E.56816
G1 X108.809 Y93.904 E.01692
G1 X96.07 Y81.166 E.56816
G1 X96.07 Y81.702 E.01692
G1 X108.298 Y93.93 E.54539
G1 X107.762 Y93.93 E.01692
G1 X96.07 Y82.238 E.52146
G1 X96.07 Y82.775 E.01692
G1 X107.225 Y93.93 E.49754
G1 X106.689 Y93.93 E.01692
G1 X96.07 Y83.311 E.47362
G1 X96.07 Y83.848 E.01692
G1 X106.152 Y93.93 E.44969
G1 X105.616 Y93.93 E.01692
G1 X96.07 Y84.384 E.42577
G1 X96.07 Y84.92 E.01692
G1 X105.08 Y93.93 E.40184
G1 X104.543 Y93.93 E.01692
G1 X96.07 Y85.457 E.37792
G1 X96.07 Y85.993 E.01692
G1 X104.007 Y93.93 E.354
G1 X103.47 Y93.93 E.01692
G1 X96.07 Y86.53 E.33007
G1 X96.07 Y87.066 E.01692
G1 X102.934 Y93.93 E.30615
G1 X102.398 Y93.93 E.01692
G1 X96.07 Y87.602 E.28223
G1 X96.07 Y88.139 E.01692
G1 X101.861 Y93.93 E.2583
G1 X101.325 Y93.93 E.01692
G1 X96.07 Y88.675 E.23438
G1 X96.07 Y89.212 E.01692
G1 X100.788 Y93.93 E.21045
G1 X100.252 Y93.93 E.01692
G1 X96.07 Y89.748 E.18653
G1 X96.07 Y90.284 E.01692
G1 X99.716 Y93.93 E.16261
G1 X99.179 Y93.93 E.01692
G1 X96.07 Y90.821 E.13868
G1 X96.07 Y91.357 E.01692
G1 X98.643 Y93.93 E.11476
G1 X98.107 Y93.93 E.01692
G1 X96.07 Y91.893 E.09084
G1 X96.07 Y92.43 E.01692
G1 X97.57 Y93.93 E.06691
G1 X97.034 Y93.93 E.01692
G1 X96.07 Y92.966 E.04299
G1 X96.07 Y93.503 E.01692
G1 X96.667 Y94.1 E.02663
M204 S1000
; stop printing object arce_example.stl id:0 copy 0
M106 S84.15
;LAYER_CHANGE
;Z:0.4
;HEIGHT:0.2
;BEFORE_LAYER_CHANGE
G92 E0.0
;0.4


;WIPE_START
G1 F8640
G1 X96.07 Y93.503 E-.195
G1 X96.07 Y92.966 E-.12385
G1 X97.034 Y93.93 E-.31475
G1 X97.57 Y93.93 E-.12385
G1 X97.562 Y93.922 E-.00255
;WIPE_END
G1 E-.04 F2100
G1 Z.6 F720
;AFTER_LAYER_CHANGE
;0.4
M104 S190 ; set temperature
G1 X97.562 Y97.754 F10800
G1 Z.4 F720
G1 E.8 F2100
;TYPE:Skirt/Brim
;WIDTH:0.42
G1 F3000
G1 X95 Y97.754 E.08034
G1 X93.583 Y97.361 E.04612
G1 X92.569 Y96.295 E.04612
G1 X92.246 Y95 E.04186
G1 X92.246 Y75 E.62709
G1 X92.639 Y73.583 E.04612
G1 X93.705 Y72.569 E.04612
G1 X95 Y72.246 E.04186
G1 X115 Y72.246 E.62709
G1 X116.417 Y72.639 E.04612
G1 X117.431 Y73.705 E.04612
G1 X117.754 Y75 E.04186
G1 X117.754 Y86.692 E.36658
G1 X117.345 Y88.137 E.0471
G1 X112.223 Y96.445 E.30602
G1 X111.145 Y97.446 E.04612
G1 X109.879 Y97.754 E.04087
G1 X97.622 Y97.754 E.38428
G1 X97.622 Y97.377 F10800
G1 F3000
G1 X95 Y97.377 E.08222
G1 X93.693 Y96.986 E.04278
M73 P0 R202
G1 X92.817 Y95.94 E.04278
G1 X92.623 Y95 E.03008
G1 X92.623 Y75 E.62709
G1 X93.014 Y73.693 E.04278
G1 X94.06 Y72.817 E.04278
G1 X95 Y72.623 E.03008
G1 X115 Y72.623 E.62709
G1 X116.307 Y73.014 E.04278
G1 X117.183 Y74.06 E.04278
G1 X117.377 Y75 E.03008
G1 X117.377 Y86.692 E.36658
G1 X117.024 Y87.939 E.04065
G1 X111.902 Y96.247 E.30602
G1 X110.883 Y97.155 E.04278
G1 X109.879 Y97.377 E.03225
G1 X97.682 Y97.377 E.3824
; printing object arce_example.stl id:0 copy 0
;WIPE_START
G1 F8640
G1 X95 Y97.377 E-.61936
G1 X94.417 Y97.202 E-.14064
;WIPE_END
G1 E-.04 F2100
G1 Z.8 F720
G1 X109.437 Y86.244 F10800
G1 Z.4 F720
G1 E.8 F2100
M204 S800
;TYPE:Perimeter
;WIDTH:0.449999
G1 F2700
G1 X109.32 Y86.38 E.00606
G1 X109.246 Y86.67 E.01014
G1 X109.246 Y94.368 E.26056
G1 X95.632 Y94.368 E.46083
G1 X95.632 Y75.632 E.63419
G1 X114.368 Y75.632 E.63419
G1 X114.368 Y86.06 E.35296
G1 X109.857 Y86.06 E.15269
G1 X109.752 Y86.069 E.00358
G1 X109.477 Y86.199 E.01029
M204 S1000
G1 X109.718 Y86.522 F10800
M204 S800
;TYPE:External perimeter
G1 F1500
G1 X109.653 Y86.67 E.00547
G1 X109.653 Y94.775 E.27434
G1 X95.225 Y94.775 E.48839
G1 X95.225 Y75.225 E.66174
G1 X114.775 Y75.225 E.66174
G1 X114.775 Y86.467 E.38052
G1 X109.857 Y86.467 E.16647
M73 Q0 S202
G1 X109.774 Y86.5 E.00304
M204 S1000
G1 X109.562 Y86.479 F10800
;WIPE_START
G1 F8640
G1 X109.653 Y86.67 E-.04814
G1 X109.653 Y89.753 E-.71186
;WIPE_END
G1 E-.04 F2100
G1 Z.8 F720
G1 X109.124 Y93.415 F10800
G1 Z.4 F720
G1 E.8 F2100
;TYPE:Solid infill
;WIDTH:0.453596
G1 F4800
G1 X108.477 Y94.063 E.03126
G1 X107.896 Y94.063 E.01983
G1 X108.941 Y93.018 E.05046
G1 X108.941 Y92.437 E.01983
G1 X107.315 Y94.063 E.07851
G1 X106.735 Y94.063 E.01983
G1 X108.941 Y91.856 E.10656
G1 X108.941 Y91.275 E.01983
G1 X106.154 Y94.063 E.13461
G1 X105.573 Y94.063 E.01983
G1 X108.941 Y90.695 E.16265
G1 X108.941 Y90.114 E.01983
G1 X104.992 Y94.063 E.1907
G1 X104.411 Y94.063 E.01983
G1 X108.941 Y89.533 E.21875
G1 X108.941 Y88.952 E.01983
G1 X103.831 Y94.063 E.24679
G1 X103.25 Y94.063 E.01983
G1 X108.941 Y88.371 E.27484
G1 X108.941 Y87.791 E.01983
G1 X102.669 Y94.063 E.30289
G1 X102.088 Y94.063 E.01983
G1 X109.124 Y87.027 E.33978
;WIPE_START
G1 F8640
G1 X106.797 Y89.354 E-.76
;WIPE_END
G1 E-.04 F2100
G1 Z.8 F720
G1 X113.697 Y85.938 F10800
G1 Z.4 F720
G1 E.8 F2100
G1 F4800
G1 X114.063 Y85.573 E.01763
G1 X114.063 Y84.992 E.01983
G1 X113.299 Y85.756 E.03686
G1 X112.718 Y85.756 E.01986
G1 X114.063 Y84.411 E.06495
G1 X114.063 Y83.831 E.01983
G1 X112.136 Y85.757 E.09304
G1 X111.554 Y85.758 E.01986
G1 X114.063 Y83.25 E.12112
G1 X114.063 Y82.669 E.01983
G1 X110.973 Y85.759 E.14921
G1 X110.391 Y85.76 E.01986
G1 X114.063 Y82.088 E.1773
G1 X114.063 Y81.508 E.01983
G1 X109.81 Y85.761 E.20539
G1 X109.621 Y85.785 E.00648
G1 X109.407 Y85.871 E.00789
G1 X109.23 Y86.002 E.00751
G1 X109.098 Y86.156 E.00695
G1 X108.981 Y86.398 E.00917
G1 X108.947 Y86.623 E.00777
G1 X101.508 Y94.063 E.35927
G1 X100.927 Y94.063 E.01983
G1 X114.063 Y80.927 E.63436
G1 X114.063 Y80.346 E.01983
G1 X100.346 Y94.063 E.66241
G1 X99.765 Y94.063 E.01983
G1 X114.063 Y79.765 E.69046
G1 X114.063 Y79.184 E.01983
G1 X99.184 Y94.063 E.7185
G1 X98.604 Y94.063 E.01983
G1 X114.063 Y78.604 E.74655
G1 X114.063 Y78.023 E.01983
G1 X98.023 Y94.063 E.7746
G1 X97.442 Y94.063 E.01983
G1 X114.063 Y77.442 E.80265
G1 X114.063 Y76.861 E.01983
G1 X96.861 Y94.063 E.83069
G1 X96.28 Y94.063 E.01983
G1 X114.063 Y76.28 E.85874
G1 X114.063 Y75.937 E.01172
G1 X113.825 Y75.937 E.00812
G1 X95.937 Y93.825 E.86383
G1 X95.937 Y93.244 E.01983
G1 X113.244 Y75.937 E.83578
G1 X112.663 Y75.937 E.01983
G1 X95.937 Y92.663 E.80774
G1 X95.937 Y92.083 E.01983
G1 X112.083 Y75.937 E.77969
G1 X111.502 Y75.937 E.01983
G1 X95.937 Y91.502 E.75164
G1 X95.937 Y90.921 E.01983
G1 X110.921 Y75.937 E.72359
G1 X110.34 Y75.937 E.01983
G1 X95.937 Y90.34 E.69555
G1 X95.937 Y89.759 E.01983
G1 X109.759 Y75.937 E.6675
G1 X109.179 Y75.937 E.01983
G1 X95.937 Y89.179 E.63945
G1 X95.937 Y88.598 E.01983
G1 X108.598 Y75.937 E.6114
G1 X108.017 Y75.937 E.01983
G1 X95.937 Y88.017 E.58336
G1 X95.937 Y87.436 E.01983
G1 X107.436 Y75.937 E.55531
G1 X106.856 Y75.937 E.01983
G1 X95.937 Y86.856 E.52726
G1 X95.937 Y86.275 E.01983
G1 X106.275 Y75.937 E.49922
G1 X105.694 Y75.937 E.01983
G1 X95.937 Y85.694 E.47117
G1 X95.937 Y85.113 E.01983
G1 X105.113 Y75.937 E.44312
G1 X104.532 Y75.937 E.01983
G1 X95.937 Y84.532 E.41507
G1 X95.937 Y83.952 E.01983
G1 X103.952 Y75.937 E.38703
G1 X103.371 Y75.937 E.01983
G1 X95.937 Y83.371 E.35898
G1 X95.937 Y82.79 E.01983
G1 X102.79 Y75.937 E.33093
G1 X102.209 Y75.937 E.01983
G1 X95.937 Y82.209 E.30288
G1 X95.937 Y81.628 E.01983
G1 X101.628 Y75.937 E.27484
G1 X101.048 Y75.937 E.01983
G1 X95.937 Y81.048 E.24679
G1 X95.937 Y80.467 E.01983
G1 X100.467 Y75.937 E.21874
G1 X99.886 Y75.937 E.01983
G1 X95.937 Y79.886 E.19069
G1 X95.937 Y79.305 E.01983
G1 X99.305 Y75.937 E.16265
G1 X98.725 Y75.937 E.01983
G1 X95.937 Y78.725 E.1346
G1 X95.937 Y78.144 E.01983
G1 X98.144 Y75.937 E.10655
G1 X97.563 Y75.937 E.01983
G1 X95.937 Y77.563 E.0785
G1 X95.937 Y76.982 E.01983
G1 X96.982 Y75.937 E.05046
G1 X96.401 Y75.937 E.01983
G1 X95.754 Y76.585 E.03126
; stop printing object arce_example.stl id:0 copy 0
M106 S170.85
;LAYER_CHANGE
;Z:0.6
;HEIGHT:0.2
;BEFORE_LAYER_CHANGE
G92 E0.0
;0.6


;WIPE_START
G1 F8640
G1 X96.401 Y75.937 E-.21135
G1 X96.982 Y75.937 E-.1341
G1 X95.937 Y76.982 E-.34118
G1 X95.937 Y77.3 E-.07337
;WIPE_END
G1 E-.04 F2100
G1 Z.8 F720
;AFTER_LAYER_CHANGE
;0.6
G1 X92.246 Y77.3 F10800
G1 Z.6 F720
G1 E.8 F2100
;TYPE:Skirt/Brim
;WIDTH:0.42
G1 F3000
G1 X92.246 Y75 E.07211
G1 X92.639 Y73.583 E.04612
G1 X93.705 Y72.569 E.04612
G1 X95 Y72.246 E.04186
G1 X115 Y72.246 E.62709
G1 X116.417 Y72.639 E.04612
G1 X117.431 Y73.705 E.04612
G1 X117.754 Y75 E.04186
G1 X117.754 Y86.692 E.36658
G1 X117.345 Y88.137 E.0471
G1 X112.223 Y96.445 E.30602
G1 X111.145 Y97.446 E.04612
G1 X109.879 Y97.754 E.04087
G1 X95 Y97.754 E.46651
G1 X93.583 Y97.361 E.04612
G1 X92.569 Y96.295 E.04612
G1 X92.246 Y95 E.04186
G1 X92.246 Y77.36 E.55309
G1 X92.623 Y77.36 F10800
G1 F3000
G1 X92.623 Y75 E.07399
G1 X93.014 Y73.693 E.04278
G1 X94.06 Y72.817 E.04278
G1 X95 Y72.623 E.03008
G1 X115 Y72.623 E.62709
